X: 3
T: Belle Katrine
I: RJ R-115 C reel
M: C|
R: reel
K: C
|: "C"EGce dccc | EGce  dccc | "G"Bcde fefg  |[1,3 ag^fg "C"eccc :|[2,4 ag^fg "C"c4 :|
|: "C"eg2g gagf | eggg "F"a4 | "G"eggg bag^f |[1,e ag^fg "C"eccc :|[2,4 ag^fg "C"c4 :|
% text 08/29/98

